X:1
T:Johnnie Cope
L:1/16
Q:1/4=56
M:2/4
K:HP
|: {g}e2<a2 | {AGAG}A2{e}AB {G}A2{g}(3Bcd | {g}e>f{gef}e>d{g} B>e{g}d>B |{g} G2{g}G{d}G{e} G2>A2 | {g}B>AG>B{Gdc} d2>B2 |!
{gAGAG}A2{e}AB{G} A2{g}(3Bcd | {g}e>f{gef}e>d{g} B>A{g}B>d | {g}efg{a}f {a}g>e{gde}d>B | {gBd} B3{e}A{GAG} A2 :|!
|: e2 | {ag}a2e2 {g}e>fg3/2f/ | {ag}a2e2 {A}e2a>g | {gfg}f2d2 {gde}d>cd>e | {gfg}f2d2 {gdc}d2{g}(3efg |!
{ag}a2e2 {g}e>fg>e | {ag}a2e2 {A}e2d>B | {g}A>Bd>f {a}e>f{gde}d>B | {gBd}B2{e}A2 {GAG}A2 :|!
|: {g}(3Bcd | {gef}e2{A}e2 {g}f>e{g}d>B | {gef}e2d>e {g}f>e{g}d>B | {Gdc}d2{g}d>e{gde} d>B{G}A>B | {gdedc}d2fd {gef}e2d{g}(3B/c/d/ |!
{gef}e2{A}e2 {g}f>e{g}d>B | {g}efe {g}d2>e2 {g}f>e{gde}d>B | {g}A>d{g}f>d {g}e>f{gde}d>B | {gBd}B2{e}A2 {GAG}A2 :|!
|: {g}(3efg | a2{g}ag {a}e>de>g | a3/2{g}a/{g}a>g {ef}e2ag | {afg}f2d2 {gde}d>cd>e | {g}f2d{gdedc}d {g}d2{g}(3efg |!
a2{g}ag {a}e>de>g | {a}e>a{g}a>g {ef}e2dB | {g}A>Bd>f {gef}e2d>B | {gBd}B2{e}A2 {GAG}A2 :| 

